app/themes/uggwc_pro/assets/images/thema/Jura.svg

<svg width="16" height="16" viewBox="0 0 16 16" fill="none" xmlns="http://www.w3.org/2000/svg">
<g clip-path="url(#clip0_111_159)">
<path d="M15.7803 6.23009L15.0732 5.52299C14.7803 5.23009 14.3055 5.23009 14.0126 5.52299L13.8358 5.69977L10.3002 2.16424L10.477 1.98746C10.7699 1.69455 10.7699 1.21968 10.477 0.926805L9.76993 0.21968C9.47702 -0.0732266 9.00215 -0.0732266 8.70927 0.21968L4.82018 4.10877C4.52727 4.40168 4.52727 4.87655 4.82018 5.16943L5.52727 5.87652C5.82018 6.16943 6.29505 6.16943 6.58793 5.87652L6.76471 5.69974L8.00215 6.93718L5.46965 9.46968L5.29287 9.2929C4.90234 8.90237 4.26918 8.90237 3.87865 9.2929L0.292898 12.8787C-0.0976328 13.2692 -0.0976328 13.9024 0.292898 14.2929L1.70712 15.7071C2.09765 16.0977 2.7308 16.0977 3.12134 15.7071L6.70712 12.1214C7.09765 11.7308 7.09765 11.0977 6.70712 10.7071L6.53034 10.5304L9.06284 7.99787L10.3003 9.2353L10.1235 9.41209C9.83059 9.70499 9.83059 10.1799 10.1235 10.4727L10.8306 11.1798C11.1235 11.4727 11.5984 11.4727 11.8912 11.1798L15.7803 7.29074C16.0732 6.99787 16.0732 6.52299 15.7803 6.23009Z" fill="#6E6CFF"/>
</g>
<defs>
<clipPath id="clip0_111_159">
<rect width="16" height="16" fill="white"/>
</clipPath>
</defs>
</svg>

<svg width="16" height="16" fill="none" xmlns="http://www.w3.org/2000/svg"><g clip-path="url(#a)"><path d="m15.78 6.23-.707-.707a.75.75 0 0 0-1.06 0l-.177.177L10.3 2.164l.177-.177a.75.75 0 0 0 0-1.06L9.77.22a.75.75 0 0 0-1.06 0L4.82 4.109a.75.75 0 0 0 0 1.06l.707.708a.75.75 0 0 0 1.06 0l.178-.177 1.237 1.237L5.47 9.47l-.177-.177a1 1 0 0 0-1.414 0L.293 12.879a1 1 0 0 0 0 1.414l1.414 1.414a1 1 0 0 0 1.414 0l3.586-3.586a1 1 0 0 0 0-1.414l-.177-.177 2.533-2.532L10.3 9.235l-.177.177a.75.75 0 0 0 0 1.06l.708.708a.75.75 0 0 0 1.06 0l3.89-3.89a.75.75 0 0 0 0-1.06z" fill="#6E6CFF"/></g><defs><clipPath id="a"><path fill="#fff" d="M0 0h16v16H0z"/></clipPath></defs></svg>
